jseshGlyphs/src/main/resources/jseshGlyphs/I96.svg

<?xml version="1.0" encoding="UTF-8" standalone="no"?>
<svg
   xmlns:dc="http://purl.org/dc/elements/1.1/"
   xmlns:cc="http://creativecommons.org/ns#"
   xmlns:rdf="http://www.w3.org/1999/02/22-rdf-syntax-ns#"
   xmlns:svg="http://www.w3.org/2000/svg"
   xmlns="http://www.w3.org/2000/svg"
   xmlns:sodipodi="http://sodipodi.sourceforge.net/DTD/sodipodi-0.dtd"
   xmlns:inkscape="http://www.inkscape.org/namespaces/inkscape"
   width="18.318424224853516"
   height="18.0"
   id="svg2"
   version="1.1"
   inkscape:version="0.91 r13725"
   sodipodi:docname="I96VARA.svg">
  <title
     id="title4138">I96VARA</title>
  <metadata
     id="metadata10">
    <rdf:RDF>
      <cc:Work
         rdf:about="">
        <dc:format>image/svg+xml</dc:format>
        <dc:type
           rdf:resource="http://purl.org/dc/dcmitype/StillImage" />
        <dc:title>I96VARA</dc:title>
        <dc:creator>
          <cc:Agent>
            <dc:title>S.P. Thomas</dc:title>
          </cc:Agent>
        </dc:creator>
        <dc:description>shape of I96 according to the Hieroglyphica. After looking  in the original Manuel de Codage, and in the Montpelier list, I think the shape is not the right one. I keep this sign for compatibility purposes.</dc:description>
      </cc:Work>
    </rdf:RDF>
  </metadata>
  <defs
     id="defs8" />
  <sodipodi:namedview
     pagecolor="#ffffff"
     bordercolor="#666666"
     borderopacity="1"
     objecttolerance="10"
     gridtolerance="10"
     guidetolerance="10"
     inkscape:pageopacity="0"
     inkscape:pageshadow="2"
     inkscape:window-width="746"
     inkscape:window-height="480"
     id="namedview6"
     showgrid="false"
     inkscape:zoom="13.111111"
     inkscape:cx="9.1592121"
     inkscape:cy="9"
     inkscape:window-x="1977"
     inkscape:window-y="308"
     inkscape:window-maximized="0"
     inkscape:current-layer="svg2" />
  <path
     d="M 1.6451779454946518 10.87691069021821 C 1.7871461314980337 10.906817556944247 1.8535748583530705 10.920447750247604 1.9615583196282387 10.940186765044928 C 4.345984286502187 11.844285346159069 5.052872064291819 12.110794149339199 6.0428651459515095 12.110794149339199 C 6.059469612150735 12.11083156309499 6.076065388703455 12.110849907904282 6.092650544577111 12.110849907904282 C 7.721035748198233 12.110849907904282 9.257435733210059 11.933170533377222 10.883484870195389 11.85768985003233 C 12.303378902431405 11.85768985003233 13.754647386136753 12.02657409539961 14.96479169651866 12.33226041123271 C 16.864344560742666 12.341867298203624 16.670721857288072 12.522088635712862 16.230313193053007 12.522088635712862 C 16.164396431204636 12.522088635712862 15.177905277087007 12.55372667312622 14.774963472038507 12.55372667312622 C 13.935495343710727 12.508082856577175 13.101019900058986 12.458812560886145 12.275558516383171 12.458812560886145 C 10.32258556750321 12.545565646782336 8.454820395715728 12.748784133770641 6.5490737445652485 12.965021159499884 C 5.92571519381795 12.965021159499884 5.326982135753383 12.853649339534911 4.58751542493701 12.58536471053958 C 3.855163120818645 12.37083254517907 3.792552286707803 11.728040806915658 2.531042993068695 11.60458555072546 C 2.43829332694591 11.60458555072546 1.2989940148768255 11.85768985003233 1.2338834591209888 11.85768985003233 C 0.49316462455334076 11.85768985003233 0.9981157890762731 10.87691069021821 1.6451779454946518 10.87691069021821 ZM 2.5626810304820538 8.504057884216309 C 2.379632902688485 8.504057884216309 2.150732406829718 8.666071968331654 1.92992028221488 9.168456669896841 C 1.8921024578610854 9.25449491167835 1.6451779454946518 10.085959754884243 1.6451779454946518 10.085959754884243 C 1.6451779454946518 10.085959754884243 1.4855662770868605 9.321755853220672 1.423711683601141 9.2000947073102 C 1.2150970468219242 8.789773159621411 0.9323228546906179 8.630610033869743 0.6960368230938911 8.630610033869743 C 0.33693347001559104 8.630610033869743 0.13659634006754295 9.214559106678166 0.34801841154694557 9.611389193683863 C 0.34801841154694557 9.611389193683863 1.0756932720541954 10.433978166431189 1.0756932720541954 10.433978166431189 C 1.092717013697353 10.448381858963145 1.0873279845889954 10.465616203844547 1.0756932720541954 10.465616203844547 C 1.0756842203390846 10.46562127280501 0.8222123610539498 10.560718591758928 0.6960368230938911 10.62380639091134 C -0.1324859260633513 11.24045846558829 0.20942760148570017 12.04786928105878 0.34801841154694557 12.237346298992634 C 0.531620262926225 12.329854827424867 0.8306720939964904 12.522088635712862 1.2022454217076302 12.522088635712862 C 1.5201474494961076 12.522088635712862 1.8660559665954963 12.366805135402444 2.3095767311751842 12.268984336405993 C 2.395855024441431 12.24973532112 2.4847370737316794 12.237346298992634 2.5626810304820538 12.237346298992634 C 3.086377059931692 12.237346298992634 3.4328747833400257 12.638255209516785 3.85984056442976 12.933383122086525 C 3.85984056442976 12.933383122086525 4.224851579719882 13.130451270380888 4.872257761657238 13.31303957104683 C 3.9031345557360453 14.588231678626471 3.0958137746585237 15.685789066806933 2.4994049556553364 16.603395462036133 C 2.0754136888405412 16.852105696759622 1.7731130765274798 17.057956663881214 1.5819018706679344 17.204518172889948 C 1.3906896992921105 17.351079681898682 1.1100982377426192 17.449837514443402 0.7276748605072498 17.520898547023535 C 0.24548889526367113 17.556428580555462 0.0 17.64076449644847 0.0 17.774002846330404 L 0.0 17.805640883743763 L 0.0 17.963831070810556 C -0.004765447968392622 17.99438290241062 0.13044793240615782 17.995475866837864 0.3825793081143445 17.995475866837864 C 0.4020065818432528 17.995475866837864 0.4221273376391821 17.995469108223915 0.44293252378702164 17.995469108223915 C 0.5630679729431876 17.995469108223915 0.7023208857924033 18.00000027611884 0.8685091683310873 18.00000027611884 C 0.9516033096004293 18.00000027611884 1.0414310820854524 17.99886772552418 1.1389693468809128 17.995469108223915 C 1.384256826397177 17.925939384461458 1.6003126971346688 17.90055499598384 1.7717300951480865 17.90055499598384 C 1.8849962580514443 17.90055499598384 1.9737801867498916 17.90922147009951 2.0564724318683147 17.932193033397198 C 2.264311638386374 17.989929941334253 2.4296645079651 17.995469108223915 2.5626810304820538 17.995469108223915 C 2.6956975529990075 17.995469108223915 2.8000826557938012 17.97605643792872 2.8790614046156406 17.90055499598384 C 2.95804015343748 17.82505355403896 3.027321739516367 17.595348541741146 3.0688896290957928 17.204518172889948 C 3.0688896290957928 17.097928072294167 3.4229207932669965 16.66292147163722 4.1129448637366295 15.9389966763556 C 4.8029689342062625 15.21507284659026 5.183789795798418 14.666884565704322 5.283552248030901 14.293818730860949 C 5.283552248030901 14.196111380027219 5.405488747115044 14.096802237687484 5.663208696991205 13.945800319314003 C 5.7546570885496635 13.945800319314003 5.971740872055136 14.133336408149034 6.295969445258379 14.51528499275446 C 6.927798953074955 15.332475763988782 7.364505827898313 15.908959464931968 7.593128979206085 16.255377050489187 C 7.821751164997579 16.601794636046407 7.854314167005725 16.817627110454964 7.688043091446161 16.91977583616972 C 7.521772015886597 17.021924561884475 7.348105568391986 17.157861529764773 7.181834492832422 17.331070322543383 C 7.02853416295801 17.49076768052089 6.8449306219252435 17.584174621850252 6.675625894218683 17.584174621850252 C 6.666076938224478 17.584174621850252 6.661539011715604 17.584790621235925 6.6553481213379655 17.584790621235925 C 6.652252193391007 17.584790621235925 6.6487430244768575 17.584637104147646 6.6439878568053246 17.584174621850252 C 6.278191394022656 17.646351939152055 6.106141220778227 17.726796824442772 6.106141220778227 17.86891695857048 L 6.106141220778227 17.995469108223915 L 7.403300754725933 17.995469108223915 C 7.627051910892476 17.867597097817793 7.829188054132601 17.805640883743763 8.004423465579748 17.805640883743763 C 8.109157843888283 17.805640883743763 8.203640370351877 17.830702789784368 8.289165802299976 17.86891695857048 C 8.51778847084961 17.971065684285236 8.670671214933577 17.995469108223915 8.795374400913715 17.995469108223915 C 8.986586210220935 17.96882182445404 9.080116737633944 17.884484943044754 9.080116737633944 17.742364808917046 C 9.080116737633944 17.591361925027286 9.023305759807954 17.431570911970766 8.890288513153791 17.236156210303307 C 8.682449548014802 16.880854909467757 8.415252573107182 16.262203733336207 8.099337577819824 15.369512002915144 C 7.818409030399607 14.575678518731763 7.355113768299361 14.001778056591661 6.738901969045401 13.597781907767057 C 8.065819680212257 13.52987618238501 9.383078366529162 13.307235369938724 10.693656645715237 13.091573309153318 C 10.83316312727709 13.091573309153318 13.196057598382708 13.039471154217495 14.205478798598051 13.028297234326601 L 14.205478798598051 13.028297234326601 C 13.274560830437395 14.1581690040735 12.564439055872981 15.38676577881165 11.737711880356073 16.603395462036133 C 11.313721820436626 16.852105696759622 11.011419639159612 17.057956663881214 10.820208795368671 17.204518172889948 C 10.62899795157773 17.351079681898682 10.316766400892789 17.449837514443402 9.934343747794628 17.520898547023535 C 9.452158159705846 17.556428580555462 9.238306924700737 17.64076449644847 9.238306924700737 17.774002846330404 L 9.238306924700737 17.805640883743763 L 9.238306924700737 17.963831070810556 C 9.23354113635014 17.99438290241062 9.34943688283795 17.995475866837864 9.591418434616685 17.995475866837864 C 9.610063519470486 17.995475866837864 9.629456879440113 17.995469108223915 9.6496014110744 17.995469108223915 C 9.765924881273577 17.995469108223915 9.906448051476673 18.00000027611884 10.073907194816911 18.00000027611884 C 10.15763676648703 18.00000027611884 10.248099848683296 17.99886772552418 10.345638234168291 17.995469108223915 C 10.590925713684555 17.925939384461458 10.797852265940378 17.90055499598384 10.978398982435465 17.90055499598384 C 11.097695277256094 17.90055499598384 11.212087714898303 17.90922147009951 11.294779356569052 17.932193033397198 C 11.502618321708042 17.989929941334253 11.667971674044907 17.995469108223915 11.80098795518279 17.995469108223915 C 11.934004236320675 17.995469108223915 12.038390063252677 17.97605643792872 12.117368329316378 17.90055499598384 C 12.196346595380078 17.82505355403896 12.233991109561885 17.595348541741146 12.275558516383171 17.204518172889948 C 12.275558516383171 17.097928072294167 12.629589197796236 16.66292147163722 13.319613751024008 15.9389966763556 C 14.009639269768059 15.21507284659026 14.422096237741016 14.666884565704322 14.521859172731638 14.293818730860949 C 14.521859172731638 14.196111380027219 14.64379615457392 14.096802237687484 14.901515621691942 13.945800319314003 C 14.99296449600854 13.945800319314003 15.210047313997734 14.133336408149034 15.534276369959116 14.51528499275446 C 16.166105395017553 15.332475763988782 16.57117519794383 15.908959464931968 16.799797866493464 16.255377050489187 C 17.028420535043097 16.601794636046407 17.060983537051243 16.817627110454964 16.89471197873354 16.91977583616972 C 16.728440420415836 17.021924561884475 16.586412975850862 17.157861529764773 16.42014141753316 17.331070322543383 C 16.266840604900608 17.49076768052089 16.083236098351563 17.584174621850252 15.91393281891942 17.584174621850252 C 15.904382897408937 17.584174621850252 15.899845936416341 17.584790621235925 15.893655046038702 17.584790621235925 C 15.890559600849883 17.584790621235925 15.887050914693873 17.584637104147646 15.882294781506062 17.584174621850252 C 15.516499284239671 17.646351939152055 15.344448145478964 17.726796824442772 15.344448145478964 17.86891695857048 L 15.344448145478964 17.995469108223915 L 16.60996964201331 17.995469108223915 C 16.833722246454272 17.867597097817793 17.03585694141998 17.805640883743763 17.211092352867126 17.805640883743763 C 17.315825765659383 17.805640883743763 17.410309257639256 17.830702789784368 17.495834689587355 17.86891695857048 C 17.724457358136988 17.971065684285236 17.908979105150593 17.995469108223915 18.033681325614452 17.995469108223915 C 18.22489410043795 17.96882182445404 18.31842366233468 17.884484943044754 18.31842366233468 17.742364808917046 C 18.31842366233468 17.591361925027286 18.26161268450869 17.431570911970766 18.12859543785453 17.236156210303307 C 17.92075647271554 16.880854909467757 17.65355949780792 16.262203733336207 17.33764450252056 15.369512002915144 C 17.021729507233204 14.476819306977802 16.49564865257571 13.839304356555374 15.755742631852627 13.439591720700264 L 15.376086182892323 12.996659196913242 C 16.10694628160229 12.952709378674797 16.970530110017762 12.88261868995454 17.242730390280485 12.870107047259808 C 18.13257529595444 12.8292024673637 17.970405250787735 12.648640785366297 17.970405250787735 12.648640785366297 C 17.970403319755178 12.648640785366297 17.383717008297253 11.920965924859047 15.502638332545757 11.920965924859047 C 13.564203162270928 11.510506610066273 12.124685977191007 11.299851958080154 10.567104496061802 11.288205176591873 C 10.413204097820312 11.28120228702403 10.259838595597103 11.278054703956172 10.106895989503869 11.278054703956172 C 8.965601679424367 11.278054703956172 7.847855345860808 11.4533212533033 6.707263931632042 11.509671438485384 C 4.989369093139658 11.509671438485384 3.241697008481623 10.833871836588514 2.214662618935108 10.180873867124319 C 2.4698647437360535 9.755742687653239 2.909454167408825 9.654964632985326 3.0056135542690754 9.105180595070124 C 3.036851626564072 8.926582109390715 2.8576508397611917 8.504057884216309 2.5626810304820538 8.504057884216309 Z"
     style="fill:#000000;stroke:none"
     id="path4" />
</svg>

<?xml version="1.0" encoding="UTF-8" standalone="no"?>
<svg
   xmlns:dc="http://purl.org/dc/elements/1.1/"
   xmlns:cc="http://creativecommons.org/ns#"
   xmlns:rdf="http://www.w3.org/1999/02/22-rdf-syntax-ns#"
   xmlns:svg="http://www.w3.org/2000/svg"
   xmlns="http://www.w3.org/2000/svg"
   xmlns:sodipodi="http://sodipodi.sourceforge.net/DTD/sodipodi-0.dtd"
   xmlns:inkscape="http://www.inkscape.org/namespaces/inkscape"
   width="18.318424224853516"
   height="18.0"
   id="svg2"
   version="1.1"
   inkscape:version="0.91 r13725"
   sodipodi:docname="I96.svg">
  <title
     id="title4138">I96</title>
  <metadata
     id="metadata10">
    <rdf:RDF>
      <cc:Work
         rdf:about="">
        <dc:format>image/svg+xml</dc:format>
        <dc:type
           rdf:resource="http://purl.org/dc/dcmitype/StillImage" />
        <dc:title>I96</dc:title>
        <dc:creator>
          <cc:Agent>
            <dc:title>S.P. Thomas, modified by S. Rosmorduc</dc:title>
          </cc:Agent>
        </dc:creator>
        <dc:description>I96 sign, according to the original Manuel de Codage. The Hieroglyphica shape is listed as I96VARA.</dc:description>
      </cc:Work>
    </rdf:RDF>
  </metadata>
  <defs
     id="defs8" />
  <sodipodi:namedview
     pagecolor="#ffffff"
     bordercolor="#666666"
     borderopacity="1"
     objecttolerance="10"
     gridtolerance="10"
     guidetolerance="10"
     inkscape:pageopacity="0"
     inkscape:pageshadow="2"
     inkscape:window-width="1324"
     inkscape:window-height="797"
     id="namedview6"
     showgrid="false"
     inkscape:zoom="25.41656"
     inkscape:cx="1.369413"
     inkscape:cy="7.8871716"
     inkscape:window-x="2027"
     inkscape:window-y="174"
     inkscape:window-maximized="0"
     inkscape:current-layer="svg2" />
  <path
     d="m 1.6451779,10.876911 c 0.1419682,0.02991 0.208397,0.04354 0.3163804,0.06328 2.384426,0.904098 3.0913138,1.170607 4.0813068,1.170607 0.016604,3.8e-5 0.0332,5.6e-5 0.049785,5.6e-5 1.6283852,0 3.1647852,-0.177679 4.7908345,-0.25316 1.419894,0 2.871162,0.168884 4.081307,0.47457 1.899553,0.0096 1.70593,0.189829 1.265521,0.189829 -0.06592,0 -1.052408,0.03164 -1.45535,0.03164 -0.839468,-0.04564 -1.673943,-0.09491 -2.499404,-0.09491 -1.952973,0.08675 -3.8207386,0.289971 -5.7264853,0.506208 -0.6233585,0 -1.2220916,-0.111372 -1.9615583,-0.379656 -0.7323523,-0.214532 -0.7949631,-0.857324 -2.0564724,-0.980779 -0.09275,0 -1.232049,0.253104 -1.2971595,0.253104 -0.74071888,0 -0.23576771,-0.980779 0.4112944,-0.980779 z M 0.69603682,10.623806 c -0.82150925,0.625965 -0.48660922,1.424063 -0.34801841,1.61354 0.18360185,0.09251 0.48265368,0.284743 0.85422699,0.284743 0.317902,0 0.6638106,-0.155284 1.1073313,-0.253105 0.086278,-0.01925 0.1751604,-0.03164 0.2531043,-0.03164 0.5236961,0 0.8701938,0.400909 1.2971596,0.696037 0,0 0.365011,0.197068 1.0124172,0.379657 C 3.9031346,14.588232 3.0958138,15.685789 2.499405,16.603395 2.0754137,16.852106 1.7731131,17.057957 1.5819019,17.204518 1.3906897,17.35108 1.1100982,17.449838 0.72767486,17.520899 0.2454889,17.556429 0,17.640764 0,17.774003 l 0,0.03164 0,0.15819 c -0.00476545,0.03055 0.13044793,0.03165 0.38257931,0.03165 l 0.0603532,-7e-6 c 0.12013545,0 0.25938837,0.0045 0.42557665,0.0045 0.0830941,0 0.17292193,-0.0011 0.27046013,-0.0045 0.2452875,-0.06953 0.4613434,-0.09491 0.6327608,-0.09491 0.1132662,0 0.2020501,0.0087 0.2847423,0.03164 0.2078392,0.05774 0.3731921,0.06328 0.5062086,0.06328 0.1330166,0 0.2374017,-0.01941 0.3163804,-0.09491 0.078979,-0.0755 0.1482603,-0.305206 0.1898282,-0.696037 0,-0.10659 0.3540312,-0.541597 1.0440553,-1.265521 0.690024,-0.723924 1.0708449,-1.272112 1.1706073,-1.645178 0,-0.09771 0.1219365,-0.197017 0.3796565,-0.348019 0.091448,0 0.3085322,0.187536 0.6327607,0.569485 0.6318296,0.817191 1.0685364,1.393674 1.2971596,1.740092 0.2286222,0.346418 0.2611852,0.56225 0.094914,0.664399 -0.1662711,0.102149 -0.3399375,0.238086 -0.5062086,0.411294 -0.1533003,0.159698 -0.3369039,0.253105 -0.5062086,0.253105 -0.00955,0 -0.014087,6.16e-4 -0.020278,6.16e-4 -0.0031,0 -0.00661,-1.54e-4 -0.01136,-6.16e-4 -0.3657965,0.06218 -0.5378467,0.142622 -0.5378467,0.284742 l 0,0.126552 1.2971596,0 c 0.2237511,-0.127872 0.4258873,-0.189828 0.6011227,-0.189828 0.1047343,0 0.1992169,0.02506 0.2847423,0.06328 0.2286227,0.102149 0.3815054,0.126552 0.5062086,0.126552 0.1912118,-0.02665 0.2847423,-0.110984 0.2847423,-0.253104 0,-0.151003 -0.056811,-0.310794 -0.1898282,-0.506209 C 8.6824495,16.880855 8.4152526,16.262204 8.0993376,15.369512 7.818409,14.575679 7.3551138,14.001778 6.738902,13.597782 c 1.3269177,-0.06791 2.6441764,-0.290547 3.954755,-0.506209 0.139506,0 2.502401,-0.0521 3.511822,-0.06328 l 0,0 c -0.930918,1.129872 -1.64104,2.358469 -2.467767,3.575098 -0.42399,0.248711 -0.726292,0.454562 -0.917503,0.601123 -0.191211,0.146562 -0.503443,0.24532 -0.8858653,0.316381 -0.4821855,0.03553 -0.6960368,0.119865 -0.6960368,0.253104 l 0,0.03164 0,0.15819 c -0.00477,0.03055 0.11113,0.03165 0.3531115,0.03165 l 0.058183,-7e-6 c 0.1163235,0 0.2568467,0.0045 0.4243056,0.0045 0.08373,0 0.174193,-0.0011 0.271731,-0.0045 0.245288,-0.06953 0.452214,-0.09491 0.632761,-0.09491 0.119296,0 0.233689,0.0087 0.31638,0.03164 0.207839,0.05774 0.373193,0.06328 0.506209,0.06328 0.133016,0 0.237402,-0.01941 0.31638,-0.09491 0.07898,-0.0755 0.116623,-0.305206 0.158191,-0.696037 0,-0.10659 0.35403,-0.541597 1.044055,-1.265521 0.690025,-0.723924 1.102482,-1.272112 1.202245,-1.645178 0,-0.09771 0.121937,-0.197017 0.379657,-0.348019 0.09145,0 0.308531,0.187536 0.63276,0.569485 0.631829,0.817191 1.036899,1.393674 1.265522,1.740092 0.228623,0.346418 0.261186,0.56225 0.09491,0.664399 -0.166272,0.102149 -0.308299,0.238086 -0.474571,0.411294 -0.1533,0.159698 -0.336905,0.253105 -0.506208,0.253105 -0.0096,0 -0.01409,6.16e-4 -0.02028,6.16e-4 -0.0031,0 -0.0066,-1.54e-4 -0.01136,-6.16e-4 -0.365796,0.06218 -0.537847,0.142622 -0.537847,0.284742 l 0,0.126552 1.265522,0 c 0.223752,-0.127872 0.425887,-0.189828 0.601122,-0.189828 0.104734,0 0.199217,0.02506 0.284743,0.06328 0.228622,0.102149 0.413144,0.126552 0.537846,0.126552 0.191213,-0.02665 0.284743,-0.110984 0.284743,-0.253104 0,-0.151003 -0.05681,-0.310794 -0.189829,-0.506209 -0.207839,-0.355301 -0.475036,-0.973952 -0.79095,-1.866644 -0.315915,-0.892693 -0.841996,-1.530208 -1.581902,-1.92992 l -0.379657,-0.442933 c 0.73086,-0.04395 1.594444,-0.11404 1.866644,-0.126552 0.889845,-0.04091 0.727675,-0.221466 0.727675,-0.221466 -2e-6,0 -0.586688,-0.727675 -2.467767,-0.727675 -1.938435,-0.410459 -3.377952,-0.621114 -4.935534,-0.632761 -0.1539,-0.007 -0.307265,-0.01015 -0.460208,-0.01015 -1.1412943,0 -2.2590407,0.175266 -3.3996321,0.231616 -1.7178948,0 -3.4947286,-0.608207 -4.5273772,-1.25229 -0.3584622,-0.22358 -1.1560119,0.116623 -1.48384988,0.366425 z"
     style="fill:#000000;stroke:none"
     id="path4"
     inkscape:connector-curvature="0"
     sodipodi:nodetypes="cccsccscccccscscscscccscsccccscsssscscccssssscsccsccscscccccscsccccscsssscscccssssscsccsccscsccscccscss" />
</svg>
